icons/fill-new-container-shopping-bag-1.svg

<svg xmlns="http://www.w3.org/2000/svg" width="32px" height="32px" viewBox="0 0 32 32" version="1.1">
    <title>fill-new-container-shopping-bag-1</title>
    <g id="fill-new-container-shopping-bag-1" stroke-width="1" fill-rule="evenodd">
        <path d="M28,26 L28,29 C28,29.5522847 27.5522847,30 27,30 L5,30 C4.44771525,30 4,29.5522847 4,29 L4,26 L28,26 Z M27,10 C27.5522847,10 28,10.4477153 28,11 L28,24 L4,24 L4,11 C4,10.4477153 4.44771525,10 5,10 L27,10 Z M11,13 C10.4477153,13 10,13.4477153 10,14 L10,16 C10,16.5522847 10.4477153,17 11,17 C11.5522847,17 12,16.5522847 12,16 L12,14 C12,13.4477153 11.5522847,13 11,13 Z M21,13 C20.4477153,13 20,13.4477153 20,14 L20,16 C20,16.5522847 20.4477153,17 21,17 C21.5522847,17 22,16.5522847 22,16 L22,14 C22,13.4477153 21.5522847,13 21,13 Z M16,2 C19.3137085,2 22,4.6862915 22,8 L20,8 C20,5.790861 18.209139,4 16,4 C13.790861,4 12,5.790861 12,8 L10,8 C10,4.6862915 12.6862915,2 16,2 Z" id="&#24418;&#29366;" />
    </g>
</svg>

<svg xmlns="http://www.w3.org/2000/svg" viewBox="0 0 32 32"><path fill="currentColor" d="M28 26v3a1 1 0 0 1-1 1H5a1 1 0 0 1-1-1v-3zm-1-16a1 1 0 0 1 1 1v13H4V11a1 1 0 0 1 1-1zm-16 3a1 1 0 0 0-1 1v2a1 1 0 0 0 2 0v-2a1 1 0 0 0-1-1m10 0a1 1 0 0 0-1 1v2a1 1 0 0 0 2 0v-2a1 1 0 0 0-1-1M16 2a6 6 0 0 1 6 6h-2a4 4 0 1 0-8 0h-2a6 6 0 0 1 6-6"/></svg>
